X:1
T:Locks and Bolts
M:3/2
L:1/4
K:D
 z4 z D| F G A3 F| G B A2 G2|
M:2/2
 F D F G| A =c2 A|
M:3/2
 B d =c2 A2| A D F3 D/2D/2| G B A3 E| D D3 z2|
